_assets/images/vector/small-wave.svg

<svg width="991" height="92" viewBox="0 0 991 92" xmlns="http://www.w3.org/2000/svg" xmlns:xlink="http://www.w3.org/1999/xlink"><title>p³õ</title><desc>Created using Figma</desc><use xlink:href="#a" transform="translate(0 46)" fill="#FFF" fill-opacity=".2"/><use xlink:href="#b" transform="translate(571 46)" fill="#FFF" fill-opacity=".2"/><use xlink:href="#c" transform="translate(195.5 42)" fill="#FFF" fill-opacity=".2"/><use xlink:href="#d" transform="translate(201.5 39)" fill="#FFF" fill-opacity=".2"/><use xlink:href="#e" transform="translate(207.5 37)" fill="#FFF" fill-opacity=".2"/><use xlink:href="#f" transform="translate(213.5 31)" fill="#FFF" fill-opacity=".2"/><use xlink:href="#g" transform="translate(219.5 35)" fill="#FFF" fill-opacity=".2"/><use xlink:href="#h" transform="translate(225.5 27)" fill="#FFF" fill-opacity=".2"/><use xlink:href="#i" transform="translate(231.5 40)" fill="#FFF" fill-opacity=".2"/><use xlink:href="#j" transform="translate(237.5 23)" fill="#FFF" fill-opacity=".2"/><use xlink:href="#k" transform="translate(243.5 28)" fill="#FFF" fill-opacity=".2"/><use xlink:href="#l" transform="translate(249.5 34)" fill="#FFF" fill-opacity=".2"/><use xlink:href="#d" transform="translate(255.5 39)" fill="#FFF" fill-opacity=".2"/><use xlink:href="#m" transform="translate(261.5 43)" fill="#FFF" fill-opacity=".2"/><use xlink:href="#i" transform="translate(267.5 40)" fill="#FFF" fill-opacity=".2"/><use xlink:href="#l" transform="translate(273.5 34)" fill="#FFF" fill-opacity=".2"/><use xlink:href="#n" transform="translate(279.5 24)" fill="#FFF" fill-opacity=".2"/><use xlink:href="#o" transform="translate(285.5 13)" fill="#FFF" fill-opacity=".2"/><use xlink:href="#p" transform="translate(291.5 1)" fill="#FFF" fill-opacity=".2"/><use xlink:href="#q" transform="translate(297.5 14)" fill="#FFF" fill-opacity=".2"/><use xlink:href="#r" transform="translate(303.5 30)" fill="#FFF" fill-opacity=".2"/><use xlink:href="#i" transform="translate(309.5 40)" fill="#FFF" fill-opacity=".2"/><use xlink:href="#c" transform="translate(315.5 42)" fill="#FFF" fill-opacity=".2"/><use xlink:href="#s" transform="translate(321.5 38)" fill="#FFF" fill-opacity=".2"/><use xlink:href="#l" transform="translate(327.5 34)" fill="#FFF" fill-opacity=".2"/><use xlink:href="#i" transform="translate(333.5 40)" fill="#FFF" fill-opacity=".2"/><use xlink:href="#t" transform="translate(339.5 29)" fill="#FFF" fill-opacity=".2"/><use xlink:href="#n" transform="translate(345.5 24)" fill="#FFF" fill-opacity=".2"/><use xlink:href="#u" transform="translate(351.5 19)" fill="#FFF" fill-opacity=".2"/><use xlink:href="#v" transform="translate(357.5 15)" fill="#FFF" fill-opacity=".2"/><use xlink:href="#w" transform="translate(363.5 10)" fill="#FFF" fill-opacity=".2"/><use xlink:href="#x" transform="translate(369.5 5)" fill="#FFF" fill-opacity=".2"/><use xlink:href="#y" transform="translate(375.5)" fill="#FFF" fill-opacity=".2"/><use xlink:href="#y" transform="translate(381.5)" fill="#FFF" fill-opacity=".2"/><use xlink:href="#x" transform="translate(387.5 5)" fill="#FFF" fill-opacity=".2"/><use xlink:href="#z" transform="translate(393.5 11)" fill="#FFF" fill-opacity=".2"/><use xlink:href="#v" transform="translate(399.5 15)" fill="#FFF" fill-opacity=".2"/><use xlink:href="#u" transform="translate(405.5 19)" fill="#FFF" fill-opacity=".2"/><use xlink:href="#A" transform="translate(411.5 25)" fill="#FFF" fill-opacity=".2"/><use xlink:href="#t" transform="translate(417.5 29)" fill="#FFF" fill-opacity=".2"/><use xlink:href="#l" transform="translate(423.5 34)" fill="#FFF" fill-opacity=".2"/><use xlink:href="#e" transform="translate(428.5 37)" fill="#FFF" fill-opacity=".2"/><use xlink:href="#i" transform="translate(434.5 40)" fill="#FFF" fill-opacity=".2"/><use xlink:href="#B" transform="translate(440.5 36)" fill="#FFF" fill-opacity=".2"/><use xlink:href="#d" transform="translate(446.5 39)" fill="#FFF" fill-opacity=".2"/><use xlink:href="#l" transform="translate(452.5 34)" fill="#FFF" fill-opacity=".2"/><use xlink:href="#c" transform="translate(458.5 42)" fill="#FFF" fill-opacity=".2"/><use xlink:href="#f" transform="translate(464.5 31)" fill="#FFF" fill-opacity=".2"/><use xlink:href="#l" transform="translate(470.5 34)" fill="#FFF" fill-opacity=".2"/><use xlink:href="#s" transform="translate(476.5 38)" fill="#FFF" fill-opacity=".2"/><use xlink:href="#c" transform="translate(482.5 42)" fill="#FFF" fill-opacity=".2"/><use xlink:href="#m" transform="translate(488.5 43)" fill="#FFF" fill-opacity=".2"/><use xlink:href="#c" transform="translate(494.5 42)" fill="#FFF" fill-opacity=".2"/><use xlink:href="#s" transform="translate(500.5 38)" fill="#FFF" fill-opacity=".2"/><use xlink:href="#l" transform="translate(506.5 34)" fill="#FFF" fill-opacity=".2"/><use xlink:href="#f" transform="translate(512.5 31)" fill="#FFF" fill-opacity=".2"/><use xlink:href="#k" transform="translate(518.5 28)" fill="#FFF" fill-opacity=".2"/><use xlink:href="#C" transform="translate(524.5 32)" fill="#FFF" fill-opacity=".2"/><use xlink:href="#s" transform="translate(530.5 38)" fill="#FFF" fill-opacity=".2"/><use xlink:href="#c" transform="translate(536.5 42)" fill="#FFF" fill-opacity=".2"/><use xlink:href="#D" transform="translate(541.5 44)" fill="#FFF" fill-opacity=".2"/><use xlink:href="#E" transform="translate(547.5 41)" fill="#FFF" fill-opacity=".2"/><use xlink:href="#s" transform="translate(553.5 38)" fill="#FFF" fill-opacity=".2"/><use xlink:href="#c" transform="translate(559.5 42)" fill="#FFF" fill-opacity=".2"/><use xlink:href="#m" transform="translate(565.5 43)" fill="#FFF" fill-opacity=".2"/><defs><path id="a" d="M0 .5h190v-1H0v1z"/><path id="b" d="M0 .5h420v-1H0v1z"/><path id="c" d="M-.5 0v8h1V0h-1z"/><path id="d" d="M-.5 0v14h1V0h-1z"/><path id="e" d="M-.5 0v18h1V0h-1z"/><path id="f" d="M-.5 0v30h1V0h-1z"/><path id="g" d="M-.5 0v22h1V0h-1z"/><path id="h" d="M-.5 0v38h1V0h-1z"/><path id="i" d="M-.5 0v12h1V0h-1z"/><path id="j" d="M-.5 0v46h1V0h-1z"/><path id="k" d="M-.5 0v36h1V0h-1z"/><path id="l" d="M-.5 0v24h1V0h-1z"/><path id="m" d="M-.5 0v6h1V0h-1z"/><path id="n" d="M-.5 0v44h1V0h-1z"/><path id="o" d="M-.5 0v66h1V0h-1z"/><path id="p" d="M-.5 0v90h1V0h-1z"/><path id="q" d="M-.5 0v64h1V0h-1z"/><path id="r" d="M-.5 0v32h1V0h-1z"/><path id="s" d="M-.5 0v16h1V0h-1z"/><path id="t" d="M-.5 0v34h1V0h-1z"/><path id="u" d="M-.5 0v54h1V0h-1z"/><path id="v" d="M-.5 0v62h1V0h-1z"/><path id="w" d="M-.5 0v72h1V0h-1z"/><path id="x" d="M-.5 0v82h1V0h-1z"/><path id="y" d="M-.5 0v92h1V0h-1z"/><path id="z" d="M-.5 0v70h1V0h-1z"/><path id="A" d="M-.5 0v42h1V0h-1z"/><path id="B" d="M-.5 0v20h1V0h-1z"/><path id="C" d="M-.5 0v28h1V0h-1z"/><path id="D" d="M-.5 0v4h1V0h-1z"/><path id="E" d="M-.5 0v10h1V0h-1z"/></defs></svg>

<svg width="991" height="92" viewBox="0 0 991 92" version="1.1" xmlns="http://www.w3.org/2000/svg" xmlns:xlink="http://www.w3.org/1999/xlink">
    <title>p&#179;&#245;</title>
    <desc>Created using Figma</desc>
    <g id="Canvas" transform="translate(-26703 -3883)">
        <g id="talkline">
            <g id="Line 6">
                <use xlink:href="#path0_stroke" transform="matrix(1 -2.44929e-16 2.44929e-16 1 26703 3929)" fill="#FFFFFF" fill-opacity="0.2"/>
            </g>
            <g id="Line 6">
                <use xlink:href="#path1_stroke" transform="translate(27274 3929)" fill="#FFFFFF" fill-opacity="0.2"/>
            </g>
            <g id="Group">
                <g id="Vector">
                    <use xlink:href="#path2_stroke" transform="translate(26898.5 3925)" fill="#FFFFFF" fill-opacity="0.2"/>
                </g>
                <g id="Vector">
                    <use xlink:href="#path3_stroke" transform="translate(26904.5 3922)" fill="#FFFFFF" fill-opacity="0.2"/>
                </g>
                <g id="Vector">
                    <use xlink:href="#path4_stroke" transform="translate(26910.5 3920)" fill="#FFFFFF" fill-opacity="0.2"/>
                </g>
                <g id="Vector">
                    <use xlink:href="#path5_stroke" transform="translate(26916.5 3914)" fill="#FFFFFF" fill-opacity="0.2"/>
                </g>
                <g id="Vector">
                    <use xlink:href="#path6_stroke" transform="translate(26922.5 3918)" fill="#FFFFFF" fill-opacity="0.2"/>
                </g>
                <g id="Vector">
                    <use xlink:href="#path7_stroke" transform="translate(26928.5 3910)" fill="#FFFFFF" fill-opacity="0.2"/>
                </g>
                <g id="Vector">
                    <use xlink:href="#path8_stroke" transform="translate(26934.5 3923)" fill="#FFFFFF" fill-opacity="0.2"/>
                </g>
                <g id="Vector">
                    <use xlink:href="#path9_stroke" transform="translate(26940.5 3906)" fill="#FFFFFF" fill-opacity="0.2"/>
                </g>
                <g id="Vector">
                    <use xlink:href="#path10_stroke" transform="translate(26946.5 3911)" fill="#FFFFFF" fill-opacity="0.2"/>
                </g>
                <g id="Vector">
                    <use xlink:href="#path11_stroke" transform="translate(26952.5 3917)" fill="#FFFFFF" fill-opacity="0.2"/>
                </g>
                <g id="Vector">
                    <use xlink:href="#path3_stroke" transform="translate(26958.5 3922)" fill="#FFFFFF" fill-opacity="0.2"/>
                </g>
                <g id="Vector">
                    <use xlink:href="#path12_stroke" transform="translate(26964.5 3926)" fill="#FFFFFF" fill-opacity="0.2"/>
                </g>
                <g id="Vector">
                    <use xlink:href="#path8_stroke" transform="translate(26970.5 3923)" fill="#FFFFFF" fill-opacity="0.2"/>
                </g>
                <g id="Vector">
                    <use xlink:href="#path11_stroke" transform="translate(26976.5 3917)" fill="#FFFFFF" fill-opacity="0.2"/>
                </g>
                <g id="Vector">
                    <use xlink:href="#path13_stroke" transform="translate(26982.5 3907)" fill="#FFFFFF" fill-opacity="0.2"/>
                </g>
                <g id="Vector">
                    <use xlink:href="#path14_stroke" transform="translate(26988.5 3896)" fill="#FFFFFF" fill-opacity="0.2"/>
                </g>
                <g id="Vector">
                    <use xlink:href="#path15_stroke" transform="translate(26994.5 3884)" fill="#FFFFFF" fill-opacity="0.2"/>
                </g>
                <g id="Vector">
                    <use xlink:href="#path16_stroke" transform="translate(27000.5 3897)" fill="#FFFFFF" fill-opacity="0.2"/>
                </g>
                <g id="Vector">
                    <use xlink:href="#path17_stroke" transform="translate(27006.5 3913)" fill="#FFFFFF" fill-opacity="0.2"/>
                </g>
                <g id="Vector">
                    <use xlink:href="#path8_stroke" transform="translate(27012.5 3923)" fill="#FFFFFF" fill-opacity="0.2"/>
                </g>
                <g id="Vector">
                    <use xlink:href="#path2_stroke" transform="translate(27018.5 3925)" fill="#FFFFFF" fill-opacity="0.2"/>
                </g>
                <g id="Vector">
                    <use xlink:href="#path18_stroke" transform="translate(27024.5 3921)" fill="#FFFFFF" fill-opacity="0.2"/>
                </g>
                <g id="Vector">
                    <use xlink:href="#path11_stroke" transform="translate(27030.5 3917)" fill="#FFFFFF" fill-opacity="0.2"/>
                </g>
                <g id="Vector">
                    <use xlink:href="#path8_stroke" transform="translate(27036.5 3923)" fill="#FFFFFF" fill-opacity="0.2"/>
                </g>
                <g id="Vector">
                    <use xlink:href="#path19_stroke" transform="translate(27042.5 3912)" fill="#FFFFFF" fill-opacity="0.2"/>
                </g>
                <g id="Vector">
                    <use xlink:href="#path13_stroke" transform="translate(27048.5 3907)" fill="#FFFFFF" fill-opacity="0.2"/>
                </g>
                <g id="Vector">
                    <use xlink:href="#path20_stroke" transform="translate(27054.5 3902)" fill="#FFFFFF" fill-opacity="0.2"/>
                </g>
                <g id="Vector">
                    <use xlink:href="#path21_stroke" transform="translate(27060.5 3898)" fill="#FFFFFF" fill-opacity="0.2"/>
                </g>
                <g id="Vector">
                    <use xlink:href="#path22_stroke" transform="translate(27066.5 3893)" fill="#FFFFFF" fill-opacity="0.2"/>
                </g>
                <g id="Vector">
                    <use xlink:href="#path23_stroke" transform="translate(27072.5 3888)" fill="#FFFFFF" fill-opacity="0.2"/>
                </g>
                <g id="Vector">
                    <use xlink:href="#path24_stroke" transform="translate(27078.5 3883)" fill="#FFFFFF" fill-opacity="0.2"/>
                </g>
                <g id="Vector">
                    <use xlink:href="#path24_stroke" transform="translate(27084.5 3883)" fill="#FFFFFF" fill-opacity="0.2"/>
                </g>
                <g id="Vector">
                    <use xlink:href="#path23_stroke" transform="translate(27090.5 3888)" fill="#FFFFFF" fill-opacity="0.2"/>
                </g>
                <g id="Vector">
                    <use xlink:href="#path25_stroke" transform="translate(27096.5 3894)" fill="#FFFFFF" fill-opacity="0.2"/>
                </g>
                <g id="Vector">
                    <use xlink:href="#path21_stroke" transform="translate(27102.5 3898)" fill="#FFFFFF" fill-opacity="0.2"/>
                </g>
                <g id="Vector">
                    <use xlink:href="#path20_stroke" transform="translate(27108.5 3902)" fill="#FFFFFF" fill-opacity="0.2"/>
                </g>
                <g id="Vector">
                    <use xlink:href="#path26_stroke" transform="translate(27114.5 3908)" fill="#FFFFFF" fill-opacity="0.2"/>
                </g>
                <g id="Vector">
                    <use xlink:href="#path19_stroke" transform="translate(27120.5 3912)" fill="#FFFFFF" fill-opacity="0.2"/>
                </g>
                <g id="Vector">
                    <use xlink:href="#path11_stroke" transform="translate(27126.5 3917)" fill="#FFFFFF" fill-opacity="0.2"/>
                </g>
                <g id="Vector">
                    <use xlink:href="#path4_stroke" transform="translate(27131.5 3920)" fill="#FFFFFF" fill-opacity="0.2"/>
                </g>
                <g id="Vector">
                    <use xlink:href="#path8_stroke" transform="translate(27137.5 3923)" fill="#FFFFFF" fill-opacity="0.2"/>
                </g>
                <g id="Vector">
                    <use xlink:href="#path27_stroke" transform="translate(27143.5 3919)" fill="#FFFFFF" fill-opacity="0.2"/>
                </g>
                <g id="Vector">
                    <use xlink:href="#path3_stroke" transform="translate(27149.5 3922)" fill="#FFFFFF" fill-opacity="0.2"/>
                </g>
                <g id="Vector">
                    <use xlink:href="#path11_stroke" transform="translate(27155.5 3917)" fill="#FFFFFF" fill-opacity="0.2"/>
                </g>
                <g id="Vector">
                    <use xlink:href="#path2_stroke" transform="translate(27161.5 3925)" fill="#FFFFFF" fill-opacity="0.2"/>
                </g>
                <g id="Vector">
                    <use xlink:href="#path5_stroke" transform="translate(27167.5 3914)" fill="#FFFFFF" fill-opacity="0.2"/>
                </g>
                <g id="Vector">
                    <use xlink:href="#path11_stroke" transform="translate(27173.5 3917)" fill="#FFFFFF" fill-opacity="0.2"/>
                </g>
                <g id="Vector">
                    <use xlink:href="#path18_stroke" transform="translate(27179.5 3921)" fill="#FFFFFF" fill-opacity="0.2"/>
                </g>
                <g id="Vector">
                    <use xlink:href="#path2_stroke" transform="translate(27185.5 3925)" fill="#FFFFFF" fill-opacity="0.2"/>
                </g>
                <g id="Vector">
                    <use xlink:href="#path12_stroke" transform="translate(27191.5 3926)" fill="#FFFFFF" fill-opacity="0.2"/>
                </g>
                <g id="Vector">
                    <use xlink:href="#path2_stroke" transform="translate(27197.5 3925)" fill="#FFFFFF" fill-opacity="0.2"/>
                </g>
                <g id="Vector">
                    <use xlink:href="#path18_stroke" transform="translate(27203.5 3921)" fill="#FFFFFF" fill-opacity="0.2"/>
                </g>
                <g id="Vector">
                    <use xlink:href="#path11_stroke" transform="translate(27209.5 3917)" fill="#FFFFFF" fill-opacity="0.2"/>
                </g>
                <g id="Vector">
                    <use xlink:href="#path5_stroke" transform="translate(27215.5 3914)" fill="#FFFFFF" fill-opacity="0.2"/>
                </g>
                <g id="Vector">
                    <use xlink:href="#path10_stroke" transform="translate(27221.5 3911)" fill="#FFFFFF" fill-opacity="0.2"/>
                </g>
                <g id="Vector">
                    <use xlink:href="#path28_stroke" transform="translate(27227.5 3915)" fill="#FFFFFF" fill-opacity="0.2"/>
                </g>
                <g id="Vector">
                    <use xlink:href="#path18_stroke" transform="translate(27233.5 3921)" fill="#FFFFFF" fill-opacity="0.2"/>
                </g>
                <g id="Vector">
                    <use xlink:href="#path2_stroke" transform="translate(27239.5 3925)" fill="#FFFFFF" fill-opacity="0.2"/>
                </g>
                <g id="Vector">
                    <use xlink:href="#path29_stroke" transform="translate(27244.5 3927)" fill="#FFFFFF" fill-opacity="0.2"/>
                </g>
                <g id="Vector">
                    <use xlink:href="#path30_stroke" transform="translate(27250.5 3924)" fill="#FFFFFF" fill-opacity="0.2"/>
                </g>
                <g id="Vector">
                    <use xlink:href="#path18_stroke" transform="translate(27256.5 3921)" fill="#FFFFFF" fill-opacity="0.2"/>
                </g>
                <g id="Vector">
                    <use xlink:href="#path2_stroke" transform="translate(27262.5 3925)" fill="#FFFFFF" fill-opacity="0.2"/>
                </g>
                <g id="Vector">
                    <use xlink:href="#path12_stroke" transform="translate(27268.5 3926)" fill="#FFFFFF" fill-opacity="0.2"/>
                </g>
            </g>
        </g>
    </g>
    <defs>
        <path id="path0_stroke" d="M 0 0.5L 190 0.5L 190 -0.5L 0 -0.5L 0 0.5Z"/>
        <path id="path1_stroke" d="M 0 0.5L 420 0.5L 420 -0.5L 0 -0.5L 0 0.5Z"/>
        <path id="path2_stroke" d="M -0.5 0L -0.5 8L 0.5 8L 0.5 0L -0.5 0Z"/>
        <path id="path3_stroke" d="M -0.5 0L -0.5 14L 0.5 14L 0.5 0L -0.5 0Z"/>
        <path id="path4_stroke" d="M -0.5 0L -0.5 18L 0.5 18L 0.5 0L -0.5 0Z"/>
        <path id="path5_stroke" d="M -0.5 0L -0.5 30L 0.5 30L 0.5 0L -0.5 0Z"/>
        <path id="path6_stroke" d="M -0.5 0L -0.5 22L 0.5 22L 0.5 0L -0.5 0Z"/>
        <path id="path7_stroke" d="M -0.5 0L -0.5 38L 0.5 38L 0.5 0L -0.5 0Z"/>
        <path id="path8_stroke" d="M -0.5 0L -0.5 12L 0.5 12L 0.5 0L -0.5 0Z"/>
        <path id="path9_stroke" d="M -0.5 0L -0.5 46L 0.5 46L 0.5 0L -0.5 0Z"/>
        <path id="path10_stroke" d="M -0.5 0L -0.5 36L 0.5 36L 0.5 0L -0.5 0Z"/>
        <path id="path11_stroke" d="M -0.5 0L -0.5 24L 0.5 24L 0.5 0L -0.5 0Z"/>
        <path id="path12_stroke" d="M -0.5 0L -0.5 6L 0.5 6L 0.5 0L -0.5 0Z"/>
        <path id="path13_stroke" d="M -0.5 0L -0.5 44L 0.5 44L 0.5 0L -0.5 0Z"/>
        <path id="path14_stroke" d="M -0.5 0L -0.5 66L 0.5 66L 0.5 0L -0.5 0Z"/>
        <path id="path15_stroke" d="M -0.5 0L -0.5 90L 0.5 90L 0.5 0L -0.5 0Z"/>
        <path id="path16_stroke" d="M -0.5 0L -0.5 64L 0.5 64L 0.5 0L -0.5 0Z"/>
        <path id="path17_stroke" d="M -0.5 0L -0.5 32L 0.5 32L 0.5 0L -0.5 0Z"/>
        <path id="path18_stroke" d="M -0.5 0L -0.5 16L 0.5 16L 0.5 0L -0.5 0Z"/>
        <path id="path19_stroke" d="M -0.5 0L -0.5 34L 0.5 34L 0.5 0L -0.5 0Z"/>
        <path id="path20_stroke" d="M -0.5 0L -0.5 54L 0.5 54L 0.5 0L -0.5 0Z"/>
        <path id="path21_stroke" d="M -0.5 0L -0.5 62L 0.5 62L 0.5 0L -0.5 0Z"/>
        <path id="path22_stroke" d="M -0.5 0L -0.5 72L 0.5 72L 0.5 0L -0.5 0Z"/>
        <path id="path23_stroke" d="M -0.5 0L -0.5 82L 0.5 82L 0.5 0L -0.5 0Z"/>
        <path id="path24_stroke" d="M -0.5 0L -0.5 92L 0.5 92L 0.5 0L -0.5 0Z"/>
        <path id="path25_stroke" d="M -0.5 0L -0.5 70L 0.5 70L 0.5 0L -0.5 0Z"/>
        <path id="path26_stroke" d="M -0.5 0L -0.5 42L 0.5 42L 0.5 0L -0.5 0Z"/>
        <path id="path27_stroke" d="M -0.5 0L -0.5 20L 0.5 20L 0.5 0L -0.5 0Z"/>
        <path id="path28_stroke" d="M -0.5 0L -0.5 28L 0.5 28L 0.5 0L -0.5 0Z"/>
        <path id="path29_stroke" d="M -0.5 0L -0.5 4L 0.5 4L 0.5 0L -0.5 0Z"/>
        <path id="path30_stroke" d="M -0.5 0L -0.5 10L 0.5 10L 0.5 0L -0.5 0Z"/>
    </defs>
</svg>
